X:59
T:Crowley's
R:Reel
O:Ireland
S:John Doyle Video & Pubscouts
Z:Transcription:Mark Boronkay, Mike Long, Chords:Mike Long
M:C|
L:1/8
K:D
"D"A3d "G"B2dB|"D"AD (3(FED) "(A)"ADFG|"D"A3d "G"BABc|"A"dfeg "(G)"fedB|\
"D"A3d "G"B2dB|"D"AD (3(FED) "(A)"ADFG|
"D"A3d "G"BABc|"A"dfeg "(G)"fdde|]\
"D"f3a "G"g2fg|"A"eA (3(cBA) eAce|"D"df~f2 "G"g2fg|
"A"afge "(G)"fdde|\
"D"f3a "G"g2fg|"A"eA (3(cBA) eAce|"D"f3a "G"g2fg|"A"afge "(G)"fddB |]
